ui/StatusQ/src/assets/img/icons/flash-disable.svg

<svg fill="none" height="24" viewBox="0 0 24 24" width="24" xmlns="http://www.w3.org/2000/svg"><g fill="#000"><path clip-rule="evenodd" d="m2.46967 2.46971c.29289-.2929.76777-.2929 1.06066 0l17.99997 17.99999c.2929.2929.2929.7678 0 1.0607s-.7677.2929-1.0606 0l-4.7548-4.7548c-.2038-.2038-.5371-.1936-.7281.0222l-4.4408 5.0202c-.3234.3656-.92537.0986-.87147-.3866l.70237-6.3209c.0658-.5924-.39792-1.1104-.99393-1.1104h-4.71793c-.64629 0-.98996-.7629-.56175-1.2469l3.25064-3.67468c.1751-.19794.16592-.49797-.02095-.68484l-4.86331-4.86331c-.29289-.2929-.29289-.76777 0-1.06066zm11.47413 12.53479c.1869.1869.1961.4869.021.6848l-1.4051 1.5884c-.3234.3656-.9254.0986-.8715-.3865l.1795-1.615c.1645-1.481-.9947-2.7761-2.48473-2.7761h-1.94326c-.43086 0-.65998-.5086-.3745-.8313l1.3108-1.4818c.19093-.21581.52429-.226.72805-.0222z" fill-rule="evenodd"/><path d="m17.8484 13.5626c-.1909.2158-.5243.226-.728.0223l-.3543-.3543c-.1868-.1868-.196-.4868-.0209-.6848l.1897-.2144c.2855-.3227.0564-.8313-.3745-.8313h-1.3177c-.1326 0-.2598-.0527-.3536-.1465l-.5-.5c-.315-.315-.0919-.8535.3536-.8535h4.5924c.6463 0 .9899.7628.5617 1.2469z"/><path d="m12.1717 8.3708c-.0168.15096.036.30136.1434.40877l.4527.45277c.2965.29645.8042.11835.8505-.29834l.7073-6.36529c.0539-.48513-.548-.7521-.8715-.3865l-3.3197 3.75278c-.17513.19794-.16595.49796.0209.68484l.3542.35421c.2038.20376.5372.19357.7281-.02226l.2028-.22931c.3235-.3656.9254-.09864.8715.3865z"/></g></svg>

<svg width="24" height="24" viewBox="0 0 24 24" fill="none" xmlns="http://www.w3.org/2000/svg">
<path fill-rule="evenodd" clip-rule="evenodd" d="M2.46967 2.46971C2.76256 2.17681 3.23744 2.17681 3.53033 2.46971L21.5303 20.4697C21.8232 20.7626 21.8232 21.2375 21.5303 21.5304C21.2374 21.8233 20.7626 21.8233 20.4697 21.5304L15.7149 16.7756C15.5111 16.5718 15.1778 16.582 14.9868 16.7978L10.546 21.818C10.2226 22.1836 9.62063 21.9166 9.67453 21.4314L10.3769 15.1105C10.4427 14.5181 9.97898 14.0001 9.38297 14.0001H4.66504C4.01875 14.0001 3.67508 13.2372 4.10329 12.7532L7.35393 9.07852C7.52903 8.88058 7.51985 8.58055 7.33298 8.39368L2.46967 3.53037C2.17678 3.23747 2.17678 2.7626 2.46967 2.46971ZM13.9438 15.0045C14.1307 15.1914 14.1399 15.4914 13.9648 15.6893L12.5597 17.2777C12.2363 17.6433 11.6343 17.3763 11.6882 16.8912L11.8677 15.2762C12.0322 13.7952 10.873 12.5001 9.38297 12.5001H7.43971C7.00885 12.5001 6.77973 11.9915 7.06521 11.6688L8.37601 10.187C8.56694 9.97119 8.9003 9.961 9.10406 10.1648L13.9438 15.0045Z" fill="black"/>
<path d="M17.8484 13.5626C17.6575 13.7784 17.3241 13.7886 17.1204 13.5849L16.7661 13.2306C16.5793 13.0438 16.5701 12.7438 16.7452 12.5458L16.9349 12.3314C17.2204 12.0087 16.9913 11.5001 16.5604 11.5001H15.2427C15.1101 11.5001 14.9829 11.4474 14.8891 11.3536L14.3891 10.8536C14.0741 10.5386 14.2972 10.0001 14.7427 10.0001L19.3351 10.0001C19.9814 10.0001 20.325 10.7629 19.8968 11.247L17.8484 13.5626Z" fill="black"/>
<path d="M12.1717 8.3708C12.1549 8.52176 12.2077 8.67216 12.3151 8.77957L12.7678 9.23234C13.0643 9.52879 13.572 9.35069 13.6183 8.934L14.3256 2.56871C14.3795 2.08358 13.7776 1.81661 13.4541 2.18221L10.1344 5.93499C9.95927 6.13293 9.96845 6.43295 10.1553 6.61983L10.5095 6.97404C10.7133 7.1778 11.0467 7.16761 11.2376 6.95178L11.4404 6.72247C11.7639 6.35687 12.3658 6.62383 12.3119 7.10897L12.1717 8.3708Z" fill="black"/>
</svg>
